src/img/categories/car.svg

<svg width="40" height="18" viewBox="0 0 40 18" fill="none" xmlns="http://www.w3.org/2000/svg">
<path fill-rule="evenodd" clip-rule="evenodd" d="M39.9631 12.4648L39.2472 9.22226C38.9946 8.00105 37.9418 7.11672 36.7206 7.0325L30.6988 6.48506L26.0666 1.9371C24.8032 0.673772 23.1188 0 21.3502 0H18.7393C14.2756 0 9.93814 1.51599 6.40084 4.25319L6.06395 4.46374C4.96907 5.30596 3.83208 6.10606 2.65298 6.82194L0.589551 8.08527C0.210554 8.29582 0 8.71693 0 9.09593V13.1807C0 13.8544 0.54744 14.3598 1.1791 14.3598H3.83208C3.83208 11.9173 5.81129 9.93814 8.25371 9.93814C10.6961 9.93814 12.6753 11.9173 12.6753 14.3598H27.2036C27.2457 11.9173 29.267 9.93814 31.7094 9.93814C34.1518 9.93814 36.1732 11.9173 36.1732 14.3598H38.4471C39.4578 14.3598 40.1737 13.4333 39.9631 12.4648ZM15.202 6.19028H8.50638C10.4856 4.71641 12.8017 3.70575 15.202 3.20042V6.19028ZM18.0655 6.19028V2.86353C18.166 2.86353 18.2665 2.85394 18.3715 2.84391C18.4866 2.83293 18.6072 2.82142 18.7393 2.82142H21.3923C22.4029 2.82142 23.3715 3.20042 24.1295 3.9163L26.4035 6.19028H18.0655ZM8.29577 17.3917C9.97029 17.3917 11.3277 16.0342 11.3277 14.3597C11.3277 12.6852 9.97029 11.3278 8.29577 11.3278C6.62126 11.3278 5.26379 12.6852 5.26379 14.3597C5.26379 16.0342 6.62126 17.3917 8.29577 17.3917ZM34.7414 14.3597C34.7414 16.0342 33.384 17.3917 31.7094 17.3917C30.0349 17.3917 28.6775 16.0342 28.6775 14.3597C28.6775 12.6852 30.0349 11.3278 31.7094 11.3278C33.384 11.3278 34.7414 12.6852 34.7414 14.3597Z" fill="#232F3E"/>
</svg>

<svg width="40" height="18" fill="none" xmlns="http://www.w3.org/2000/svg"><path fill-rule="evenodd" clip-rule="evenodd" d="M39.963 12.465l-.716-3.243a2.775 2.775 0 00-2.526-2.19l-6.022-.547-4.632-4.548A6.624 6.624 0 0021.35 0h-2.61C14.275 0 9.937 1.516 6.4 4.253l-.336.21a37.784 37.784 0 01-3.411 2.359L.59 8.085c-.38.21-.59.632-.59 1.01v4.086c0 .673.547 1.179 1.18 1.179h2.652a4.421 4.421 0 118.843 0h14.529c.042-2.443 2.063-4.422 4.505-4.422 2.443 0 4.464 1.98 4.464 4.422h2.274c1.01 0 1.727-.927 1.516-1.895zM15.202 6.19H8.506c1.98-1.474 4.296-2.484 6.696-2.99v2.99zm2.864 0V2.864c.1 0 .2-.01.306-.02.115-.011.235-.023.367-.023h2.653c1.01 0 1.98.38 2.738 1.095l2.274 2.274h-8.338zm-9.77 11.202a3.032 3.032 0 100-6.064 3.032 3.032 0 000 6.064zM34.74 14.36a3.032 3.032 0 11-6.064 0 3.032 3.032 0 016.064 0z" fill="#232F3E"/></svg>
